X:1
T:Title
L:1/8
Q:1/4=110
M:4/4
K:D
V:1 treble nm="Church Organ, Staff"
V:1
 D F2 D- D/ z/ A3 | A c2 A- A/ z/ .d3 | FGAB- B/ z/ A3 | G G3- G/ z/ z z E- | E E3 E F2 D- | %5
w: By~Henry~Lawes * * * *|||||
 DDEF G A3 | ABcd c B3 | A A3- A/ z/ z z A- |[M:3/4] AF- F2- F/ z/ B- | BG- G2- G/ z/ =c- | %10
w: |||||
 c =c2 B3 |[M:4/4] A A3- A2- A/ z/ F | G A2 E- E/ z/ F2 D/E/ | F E3 D D3- | D2 z2 z4 |] %15
w: |||||

